;FLAVOR:Marlin
;TIME:7787
;Filament used: 2.00134m
;Layer height: 0.12
;MINX:82.753
;MINY:95.511
;MINZ:0.144
;MAXX:125.758
;MAXY:139.489
;MAXZ:91.674
;Generated with Cura_SteamEngine 4.9.0
M140 S50
M105
M190 S50
M104 S200
M105
M109 S200
M82 ;absolute extrusion mode
; Ender 3 Custom Start G-code
G92 E0 ; Reset Extruder
G28 ; Home all axes
G1 Z2.0 F3000 ; Move Z Axis up little to prevent scratching of Heat Bed
G1 X0.1 Y20 Z0.3 F5000.0 ; Move to start position
G1 X0.1 Y200.0 Z0.3 F1500.0 E15 ; Draw the first line
G1 X0.4 Y200.0 Z0.3 F5000.0 ; Move to side a little
G1 X0.4 Y20 Z0.3 F1500.0 E30 ; Draw the second line
G92 E0 ; Reset Extruder
G1 Z2.0 F3000 ; Move Z Axis up little to prevent scratching of Heat Bed
G1 X5 Y20 Z0.3 F5000.0 ; Move over to prevent blob squish
G92 E0
G92 E0
G1 F2700 E-5
;LAYER_COUNT:762
;LAYER:-6
M107
G0 F9000 X89.669 Y102.362 Z0.144
;TYPE:SUPPORT-INTERFACE
G1 F2700 E0
G1 F1125 X90.62 Y101.522 E0.06077
G1 X90.683 Y101.469 E0.06471
G1 X91.499 Y100.817 E0.11474
G1 X92.259 Y100.253 E0.16007
G1 X92.425 Y100.141 E0.16966
G1 X93.47 Y99.493 E0.22855
G1 X93.575 Y99.432 E0.23437
G1 X94.46 Y98.941 E0.28284
G1 X95.329 Y98.499 E0.32953
G1 X95.479 Y98.431 E0.33742
G1 X96.684 Y97.94 E0.39974
G1 X97.674 Y97.591 E0.45002
G1 X98.628 Y97.294 E0.49787
G1 X98.844 Y97.237 E0.50857
G1 X100.077 Y96.965 E0.56905
G1 X100.16 Y96.949 E0.57309
G1 X101.175 Y96.778 E0.62239
G1 X102.134 Y96.652 E0.66872
G1 X102.311 Y96.636 E0.67723
G1 X103.578 Y96.575 E0.73798
G1 X103.662 Y96.573 E0.74201
G1 X104.682 Y96.574 E0.79086
G1 X105.665 Y96.61 E0.83797
G1 X105.831 Y96.623 E0.84595
G1 X107.077 Y96.773 E0.90605
G1 X107.182 Y96.788 E0.91113
G1 X108.134 Y96.95 E0.95738
G1 X109.113 Y97.153 E1.00527
G1 X109.338 Y97.209 E1.01638
G1 X110.496 Y97.554 E1.07425
G1 X110.629 Y97.597 E1.08094
G1 X111.551 Y97.92 E1.12773
G1 X112.49 Y98.288 E1.17604
G1 X112.647 Y98.358 E1.18427
G1 X113.806 Y98.93 E1.24617
G1 X114.74 Y99.447 E1.2973
G1 X115.606 Y99.969 E1.34573
G1 X115.754 Y100.067 E1.35423
G1 X116.84 Y100.856 E1.41852
G1 X117.582 Y101.45 E1.46404
G1 X117.692 Y101.542 E1.47091
G1 X118.378 Y102.132 E1.51425
G1 X118.509 Y102.256 E1.52289
G1 X119.399 Y103.165 E1.58382
G1 X119.466 Y103.236 E1.58849
G1 X120.15 Y104.007 E1.63786
G1 X120.765 Y104.753 E1.68416
G1 X120.869 Y104.89 E1.6924
G1 X121.587 Y105.927 E1.75281
G1 X121.644 Y106.014 E1.75779
G1 X122.148 Y106.821 E1.80336
G1 X122.654 Y107.697 E1.85181
G1 X122.757 Y107.895 E1.8625
G1 X123.273 Y108.999 E1.92087
G1 X123.329 Y109.124 E1.92743
G1 X123.721 Y110.083 E1.97705
G1 X124.047 Y110.969 E2.02226
G1 X124.105 Y111.149 E2.03132
G1 X124.35 Y112.006 E2.07401
G1 X124.39 Y112.164 E2.08182
G1 X124.57 Y113.021 E2.12376
G1 X124.605 Y113.226 E2.13372
G1 X124.72 Y114.082 E2.17509
G1 X124.739 Y114.269 E2.18409
G1 X124.794 Y115.176 E2.22761
G1 X124.797 Y115.299 E2.2335
G1 X124.785 Y116.235 E2.27833
G1 X124.779 Y116.365 E2.28457
G1 X124.722 Y117.035 E2.31677
G1 X124.718 Y117.867 E2.35662
G1 X124.786 Y118.777 E2.40033
G1 X124.792 Y118.932 E2.40776
G1 X124.792 Y119.833 E2.45091
G1 X124.786 Y120.011 E2.45944
G1 X124.721 Y120.907 E2.50247
G1 X124.704 Y121.063 E2.50998
G1 X124.572 Y121.963 E2.55355
G1 X124.541 Y122.139 E2.56211
G1 X124.351 Y122.99 E2.60387
G1 X124.303 Y123.178 E2.61316
G1 X124.048 Y124.027 E2.65562
G1 X123.995 Y124.186 E2.66365
G1 X123.712 Y124.94 E2.70222
G1 X123.3 Y125.945 E2.75424
G1 X122.914 Y126.797 E2.79904
G1 X122.824 Y126.977 E2.80868
G1 X122.217 Y128.062 E2.86822
G1 X122.141 Y128.192 E2.87543
G1 X121.649 Y128.979 E2.91989
G1 X121.583 Y129.081 E2.92571
G1 X121.062 Y129.849 E2.97015
G1 X120.961 Y129.987 E2.97834
G1 X120.167 Y130.972 E3.03894
G1 X120.108 Y131.041 E3.04329
G1 X119.415 Y131.82 E3.09322
G1 X118.766 Y132.498 E3.13818
G1 X118.625 Y132.633 E3.14753
G1 X117.669 Y133.478 E3.20864
G1 X117.606 Y133.531 E3.21258
G1 X116.79 Y134.183 E3.2626
G1 X116.03 Y134.747 E3.30793
G1 X115.869 Y134.856 E3.31724
G1 X114.819 Y135.507 E3.37641
G1 X114.714 Y135.568 E3.38223
G1 X113.829 Y136.059 E3.4307
G1 X112.963 Y136.499 E3.47723
G1 X112.81 Y136.569 E3.48529
G1 X111.605 Y137.06 E3.54761
G1 X110.615 Y137.409 E3.59788
G1 X109.661 Y137.706 E3.64574
G1 X109.445 Y137.763 E3.65643
G1 X108.212 Y138.035 E3.71691
G1 X108.129 Y138.051 E3.72096
G1 X107.114 Y138.222 E3.77026
G1 X106.155 Y138.348 E3.81658
G1 X105.978 Y138.364 E3.82509
G1 X104.711 Y138.425 E3.88585
G1 X104.627 Y138.427 E3.88987
G1 X103.607 Y138.426 E3.93872
G1 X102.624 Y138.39 E3.98583
G1 X102.458 Y138.377 E3.99381
G1 X101.212 Y138.227 E4.05392
G1 X101.107 Y138.212 E4.059
G1 X100.155 Y138.05 E4.10525
G1 X99.176 Y137.847 E4.15313
G1 X98.951 Y137.791 E4.16424
G1 X97.781 Y137.442 E4.22272
G1 X97.66 Y137.403 E4.2288
G1 X96.738 Y137.08 E4.27559
G1 X95.799 Y136.712 E4.3239
G1 X95.642 Y136.642 E4.33213
G1 X94.483 Y136.07 E4.39403
G1 X93.549 Y135.553 E4.44516
G1 X92.683 Y135.031 E4.49359
G1 X92.535 Y134.933 E4.50209
G1 X91.44 Y134.137 E4.56693
G1 X90.707 Y133.55 E4.61191
G1 X90.597 Y133.458 E4.61878
G1 X89.911 Y132.868 E4.66211
G1 X89.78 Y132.744 E4.67075
G1 X88.89 Y131.835 E4.73168
G1 X88.823 Y131.764 E4.73636
G1 X88.136 Y130.989 E4.78596
G1 X87.524 Y130.247 E4.83202
G1 X87.42 Y130.11 E4.84026
G1 X86.696 Y129.064 E4.90119
G1 X86.645 Y128.986 E4.90565
G1 X86.141 Y128.179 E4.95122
G1 X86.088 Y128.09 E4.95618
G1 X85.63 Y127.293 E5.00021
G1 X85.537 Y127.116 E5.00979
G1 X85.003 Y125.974 E5.07017
G1 X84.946 Y125.841 E5.0771
G1 X84.601 Y124.995 E5.12085
G1 X84.558 Y124.885 E5.12651
G1 X84.234 Y124 E5.17165
G1 X84.188 Y123.861 E5.17866
G1 X83.94 Y122.995 E5.22181
G1 X83.897 Y122.82 E5.23044
G1 X83.712 Y121.937 E5.27365
G1 X83.686 Y121.781 E5.28122
G1 X83.568 Y120.895 E5.32403
G1 X83.551 Y120.718 E5.33255
G1 X83.498 Y119.82 E5.37563
G1 X83.494 Y119.688 E5.38196
G1 X83.507 Y118.761 E5.42636
G1 X83.514 Y118.608 E5.43369
G1 X83.568 Y117.979 E5.46393
G1 X83.572 Y117.148 E5.50373
G1 X83.502 Y116.208 E5.54888
G1 X83.497 Y116.068 E5.55559
G1 X83.497 Y115.168 E5.59869
G1 X83.504 Y114.968 E5.60828
G1 X83.568 Y114.093 E5.6503
G1 X83.585 Y113.937 E5.65781
G1 X83.717 Y113.037 E5.70138
G1 X83.748 Y112.861 E5.70994
G1 X83.938 Y112.01 E5.7517
G1 X83.986 Y111.822 E5.76099
G1 X84.245 Y110.961 E5.80405
G1 X84.295 Y110.814 E5.81149
G1 X84.582 Y110.049 E5.85062
G1 X84.989 Y109.055 E5.90207
G1 X85.381 Y108.19 E5.94755
G1 X85.465 Y108.023 E5.9565
G1 X86.079 Y106.926 E6.01672
G1 X86.148 Y106.808 E6.02326
G1 X86.639 Y106.022 E6.06765
G1 X86.717 Y105.903 E6.07446
G1 X87.227 Y105.151 E6.11798
G1 X87.331 Y105.009 E6.12641
G1 X88.122 Y104.028 E6.18677
G1 X88.181 Y103.959 E6.19112
G1 X88.823 Y103.236 E6.23742
G1 X88.905 Y103.148 E6.24319
G1 X89.529 Y102.496 E6.28641
G1 X89.669 Y102.362 E6.29569
G0 F9000 X89.6 Y102.428
G1 F1125 X89.6 Y132.56 E7.73885
G0 F9000 X91.2 Y133.944
G1 F1125 X91.2 Y101.055 E9.31406
G0 F9000 X92.8 Y99.908
G1 F1125 X92.8 Y135.101 E10.99961
G0 F9000 X94.4 Y136.024
G1 F1125 X94.4 Y98.974 E12.77411
G0 F9000 X96 Y98.218
G1 F1125 X96 Y136.79 E14.6215
G0 F9000 X97.6 Y137.381
G1 F1125 X97.6 Y97.617 E16.52598
G0 F9000 X99.2 Y97.158
G1 F1125 X99.2 Y137.851 E18.47495
G0 F9000 X100.8 Y138.159
G1 F1125 X100.8 Y96.841 E20.45386
G0 F9000 X102.4 Y96.631
G1 F1125 X102.4 Y138.37 E22.45293
G0 F9000 X104 Y138.426
G1 F1125 X104 Y96.574 E24.45742
G0 F9000 X105.6 Y96.608
G1 F1125 X105.6 Y138.383 E26.45821
G0 F9000 X107.2 Y138.208
G1 F1125 X107.2 Y96.792 E28.44182
G0 F9000 X108.8 Y97.089
G1 F1125 X108.8 Y137.906 E30.39673
G0 F9000 X110.4 Y137.476
G1 F1125 X110.4 Y97.526 E32.31012
G0 F9000 X112 Y98.096
G1 F1125 X112 Y136.9 E34.16862
G0 F9000 X113.6 Y136.176
G1 F1125 X113.6 Y98.829 E35.95734
G0 F9000 X115.2 Y99.725
G1 F1125 X115.2 Y135.271 E37.6598
G0 F9000 X116.8 Y134.176
G1 F1125 X116.8 Y100.827 E39.25704
G0 F9000 X118.4 Y102.153
G1 F1125 X118.4 Y132.832 E40.7264
G0 F9000 X120 Y131.163
G1 F1125 X120 Y103.838 E42.03512
G0 F9000 X121.6 Y105.947
G1 F1125 X121.6 Y129.055 E43.14186
G0 F9000 X123.2 Y126.166
G1 F1125 X123.2 Y108.843 E43.97154
G1 F2700 E38.97154
G0 F9000 X124.164 Y108.393
G0 X123.592 Y107.193
G0 X122.473 Y105.337
G0 X121.595 Y104.087
G0 X120.164 Y102.425
G0 X119.083 Y101.336
G0 X117.411 Y99.954
G0 X116.169 Y99.065
G0 X114.286 Y97.98
G0 X112.904 Y97.307
G0 X110.814 Y96.538
G0 X109.343 Y96.114
G0 X107.221 Y95.718
G0 X105.726 Y95.547
G0 X103.536 Y95.511
G0 X102.009 Y95.595
G0 X99.855 Y95.924
G0 X98.341 Y96.268
G0 X96.293 Y96.95
G0 X94.86 Y97.543
G0 X92.916 Y98.585
G0 X91.645 Y99.384
G0 X89.926 Y100.714
G0 X88.995 Y101.547
G0 X87.381 Y103.257
G0 X88 Y104.179
G1 F2700 E43.97154
G1 F1125 X88 Y130.824 E45.24769
G0 F9000 X86.4 Y128.593
G1 F1125 X86.4 Y106.404 E46.31043
G0 F9000 X84.8 Y109.516
G1 F1125 X84.8 Y125.482 E47.07511
G1 F2700 E42.07511
G0 F300 X84.8 Y125.482 Z0.324
G0 F9000 X83.967 Y126.256
G0 X84.692 Y127.799
G0 X85.328 Y128.855
G0 X86.545 Y130.715
G0 X87.419 Y130.109
;TIME_ELAPSED:61.517566
;LAYER:-5
;TYPE:SUPPORT
G1 F2700 E47.07511
G1 F1125 X87.524 Y130.246 E47.08545
G1 X88.135 Y130.987 E47.14295
G1 X88.823 Y131.762 E47.20499
G1 X88.89 Y131.834 E47.21088
G1 X89.779 Y132.743 E47.287
G1 X89.91 Y132.867 E47.2978
G1 X90.596 Y133.457 E47.35196
G1 X90.706 Y133.549 E47.36055
G1 X91.44 Y134.136 E47.41682
G1 X92.426 Y134.853 E47.4898
G1 X86.829 Y129.255 E47.96373
G1 X86.696 Y129.063 E47.97771
G1 X86.645 Y128.985 E47.98329
G1 X86.141 Y128.178 E48.04025
G1 X86.088 Y128.088 E48.0465
G1 X85.629 Y127.292 E48.10151
G1 X85.537 Y127.115 E48.11346
G1 X85.04 Y126.052 E48.18371
G1 X95.616 Y136.628 E49.07914
G1 X95.641 Y136.641 E49.08083
G1 X95.799 Y136.711 E49.09117
G1 X96.737 Y137.079 E49.1515
G1 X97.659 Y137.402 E49.20998
G1 X97.78 Y137.441 E49.2176
G1 X97.869 Y137.467 E49.22315
G1 X84.157 Y123.755 E50.38409
G1 X83.939 Y122.994 E50.43149
G1 X83.896 Y122.818 E50.44233
G1 X83.711 Y121.936 E50.49629
G1 X83.703 Y121.886 E50.49932
G1 X99.789 Y137.972 E51.86126
G1 X100.155 Y138.049 E51.88365
G1 X101.107 Y138.211 E51.94147
G1 X101.211 Y138.225 E51.94775
G1 X101.489 Y138.259 E51.96452
G1 X83.525 Y120.295 E53.48547
G1 X83.497 Y119.819 E53.51401
G1 X83.493 Y119.687 E53.52192
G1 X83.505 Y118.86 E53.57143
G1 X103.049 Y138.404 E55.22616
G1 X103.607 Y138.425 E55.25959
G1 X104.484 Y138.426 E55.31209
G1 X83.57 Y117.511 E57.08285
G1 X83.572 Y117.147 E57.10464
G1 X83.502 Y116.207 E57.16107
G1 X83.496 Y116.067 E57.16946
G1 X83.496 Y116.023 E57.1721
G1 X105.842 Y138.369 E59.06405
G1 X105.977 Y138.363 E59.07214
G1 X106.155 Y138.346 E59.08285
G1 X107.108 Y138.22 E59.1404
G1 X83.526 Y114.639 E61.13696
G1 X83.568 Y114.092 E61.16981
G1 X83.584 Y113.936 E61.17919
G1 X83.668 Y113.366 E61.21369
G1 X108.313 Y138.011 E63.30029
G1 X109.445 Y137.762 E63.36968
G1 X109.47 Y137.755 E63.37124
G1 X83.898 Y112.183 E65.53633
G1 X83.938 Y112.009 E65.54702
G1 X83.985 Y111.821 E65.55862
G1 X84.208 Y111.078 E65.60506
G1 X110.556 Y137.426 E67.83586
G1 X110.614 Y137.408 E67.83949
G1 X111.603 Y137.059 E67.90228
G1 X84.584 Y110.04 E70.18988
G1 X84.988 Y109.054 E70.25368
G1 X84.995 Y109.037 E70.25478
G1 X112.608 Y136.649 E72.59263
G1 X112.809 Y136.568 E72.6056
G1 X112.963 Y136.498 E72.61573
G1 X113.564 Y136.192 E72.65611
G1 X85.441 Y108.068 E75.03723
G1 X85.465 Y108.021 E75.04038
G1 X85.947 Y107.16 E75.09946
G1 X114.482 Y135.695 E77.51542
G1 X114.713 Y135.567 E77.53123
G1 X114.819 Y135.506 E77.53855
G1 X115.367 Y135.166 E77.57716
G1 X86.478 Y106.277 E80.02309
G1 X86.638 Y106.02 E80.04121
G1 X86.716 Y105.901 E80.04973
G1 X87.039 Y105.424 E80.08422
G1 X116.22 Y134.604 E82.55483
G1 X116.789 Y134.181 E82.59728
G1 X117.024 Y133.994 E82.61526
G1 X87.645 Y104.616 E85.10263
G1 X88.121 Y104.027 E85.14797
G1 X88.181 Y103.958 E85.15344
G1 X88.284 Y103.84 E85.16282
G1 X117.802 Y133.358 E87.66201
G1 X118.553 Y132.695 E87.72198
G1 X88.953 Y103.095 E90.22811
G1 X89.528 Y102.495 E90.27786
G1 X89.651 Y102.379 E90.28798
G1 X119.257 Y131.985 E92.79462
G1 X119.414 Y131.818 E92.80834
G1 X119.928 Y131.242 E92.85456
G1 X90.401 Y101.715 E95.35451
G1 X90.619 Y101.52 E95.37202
G1 X90.682 Y101.467 E95.37695
G1 X91.175 Y101.074 E95.41469
G1 X120.571 Y130.471 E97.90359
G1 X120.961 Y129.986 E97.94085
G1 X121.061 Y129.848 E97.95105
G1 X121.183 Y129.669 E97.96402
G1 X91.976 Y100.462 E100.43687
G1 X92.259 Y100.252 E100.45797
G1 X92.424 Y100.14 E100.46991
G1 X92.822 Y99.893 E100.49795
G1 X121.748 Y128.819 E102.94702
G1 X122.141 Y128.191 E102.99137
G1 X122.216 Y128.061 E103.00036
G1 X122.284 Y127.941 E103.00861
G1 X93.703 Y99.36 E105.42847
G1 X94.46 Y98.94 E105.48029
G1 X94.617 Y98.86 E105.49084
G1 X122.791 Y127.034 E107.87624
G1 X122.823 Y126.975 E107.88025
G1 X122.914 Y126.796 E107.89228
G1 X123.243 Y126.071 E107.93994
G1 X95.566 Y98.395 E110.28321
G1 X96.57 Y97.985 E110.34814
G1 X123.658 Y125.072 E112.64154
G1 X123.711 Y124.939 E112.65011
G1 X123.994 Y124.185 E112.69833
G1 X124.042 Y124.042 E112.70736
G1 X97.613 Y97.613 E114.94501
G1 X97.673 Y97.591 E114.94884
G1 X98.627 Y97.293 E115.00867
G1 X98.691 Y97.277 E115.01262
G1 X124.36 Y122.946 E117.18593
G1 X124.54 Y122.139 E117.23543
G1 X124.571 Y121.963 E117.24613
G1 X124.599 Y121.77 E117.2578
G1 X99.844 Y97.016 E119.35368
G1 X100.076 Y96.964 E119.36791
G1 X100.159 Y96.949 E119.37296
G1 X101.042 Y96.8 E119.42657
G1 X124.749 Y120.507 E121.43376
G1 X124.785 Y120.01 E121.46359
G1 X124.79 Y119.832 E121.47425
G1 X124.79 Y119.134 E121.51604
G1 X102.294 Y96.637 E123.42074
G1 X102.309 Y96.636 E123.42164
G1 X103.577 Y96.575 E123.49764
G1 X103.644 Y96.573 E123.50165
G1 X124.718 Y117.647 E125.28592
G1 X124.721 Y117.035 E125.32256
G1 X124.778 Y116.365 E125.36281
G1 X124.781 Y116.296 E125.36695
G1 X105.073 Y96.588 E127.03555
G1 X105.664 Y96.61 E127.07096
G1 X105.83 Y96.622 E127.08093
G1 X106.616 Y96.717 E127.12832
G1 X124.775 Y114.875 E128.66574
G1 X124.738 Y114.269 E128.70209
G1 X124.719 Y114.081 E128.7134
G1 X124.614 Y113.301 E128.76052
G1 X108.298 Y96.984 E130.14198
G1 X109.112 Y97.153 E130.19175
G1 X109.337 Y97.208 E130.20562
G1 X110.191 Y97.463 E130.25898
G1 X124.195 Y111.467 E131.44465
G1 X124.104 Y111.148 E131.46451
G1 X124.046 Y110.969 E131.47577
G1 X123.72 Y110.083 E131.53229
G1 X123.371 Y109.229 E131.58752
G1 X112.391 Y98.249 E132.51716
G1 X112.489 Y98.287 E132.52345
G1 X112.646 Y98.358 E132.53377
G1 X113.805 Y98.93 E132.61115
G1 X114.739 Y99.447 E132.67506
G1 X115.403 Y99.847 E132.72147
G1 X121.765 Y106.209 E133.26012
G0 F9000 X121.643 Y106.013
G1 F1125 X121.586 Y105.926 E133.26634
G1 X120.867 Y104.89 E133.34184
G1 X120.764 Y104.752 E133.35215
G1 X120.148 Y104.006 E133.41007
G1 X119.465 Y103.236 E133.47169
G1 X119.398 Y103.164 E133.47758
G1 X118.508 Y102.256 E133.5537
G1 X118.377 Y102.132 E133.5645
G1 X117.69 Y101.541 E133.61875
G1 X117.581 Y101.45 E133.62725
G1 X116.839 Y100.856 E133.68415
G1 X115.753 Y100.066 E133.76455
G1 X115.605 Y99.968 E133.77518
G1 X115.403 Y99.847 E133.78928
G1 F2700 E128.78928
G0 F300 X115.403 Y99.847 Z0.444
G0 F9000 X115.952 Y98.934
G0 X114.286 Y97.98
G0 X112.904 Y97.307
G0 X110.814 Y96.538
G0 X109.343 Y96.114
G0 X107.625 Y95.794
G0 X105.726 Y95.547
G0 X105.406 Y96.4
;TIME_ELAPSED:140.713964
;LAYER:-4
;TYPE:SUPPORT-INTERFACE
G1 F2700 E133.78928
G1 F1500 X103.05 Y96.4 E133.83629
G1 X103.569 Y96.375 E133.84666
G1 X103.658 Y96.373 E133.84844
G1 X104.69 Y96.374 E133.86903
G0 F9000 X103.05 Y96.4
G1 F1500 X102.302 Y96.436 E133.88398
G1 X102.1 Y96.454 E133.88803
G1 X101.153 Y96.578 E133.90709
G1 X100.125 Y96.752 E133.92789
G1 X100.03 Y96.771 E133.92983
G1 X99.898 Y96.8 E133.93252
G1 X108.401 Y96.8 E134.10221
G1 X109.154 Y96.957 E134.11756
G1 X109.378 Y97.013 E134.12217
G1 X110.009 Y97.2 E134.1353
G1 X98.258 Y97.2 E134.3698
G1 X97.613 Y97.401 E134.38329
G1 X97.05 Y97.6 E134.3952
G1 X111.243 Y97.6 E134.67844
G1 X111.611 Y97.729 E134.68622
G1 X112.303 Y98 E134.70105
G1 X96.007 Y98 E135.02626
G1 X95.411 Y98.242 E135.03909
G1 X95.231 Y98.324 E135.04304
G1 X95.082 Y98.4 E135.04638
G1 X113.184 Y98.4 E135.40762
G1 X113.889 Y98.748 E135.42331
G1 X113.981 Y98.797 E135.42539
G1 X113.987 Y98.8 E135.42553
G1 X94.303 Y98.8 E135.81834
G1 X93.581 Y99.2 E135.83481
G1 X114.707 Y99.2 E136.25641
G1 X114.833 Y99.27 E136.25928
G1 X114.898 Y99.307 E136.26078
G1 X115.383 Y99.6 E136.27208
G1 X92.919 Y99.6 E136.72038
